forward-electronic/img/logo.svg

<svg width="97" height="37" viewBox="0 0 97 37" fill="none" xmlns="http://www.w3.org/2000/svg">
<path d="M2.00937 14V5H0.504687V3.49531H2.00937V3.36172C2.00937 2.57891 2.29062 1.90625 2.85312 1.34375C3.41563 0.78125 4.08828 0.5 4.87109 0.5H8V2.00469H6.36875C5.99375 2.00469 5.67266 2.14062 5.40547 2.4125C5.13828 2.67969 5.00469 2.99609 5.00469 3.36172V3.49531H6.50938V5H5.00469V14H2.00937ZM12.5 3.49531H15.5094C16.3297 3.49531 17.0328 3.79297 17.6188 4.38828C18.2094 4.97891 18.5047 5.68438 18.5047 6.50469V11.0047C18.5047 11.8156 18.2094 12.5187 17.6188 13.1141C17.0328 13.7047 16.3297 14 15.5094 14H12.5C11.6797 14 10.9742 13.707 10.3836 13.1211C9.79766 12.5305 9.50469 11.825 9.50469 11.0047V6.50469C9.50469 5.675 9.8 4.96719 10.3906 4.38125C10.9813 3.79062 11.6844 3.49531 12.5 3.49531ZM12.5 6.50469V11.0047C12.5 11.4078 12.6453 11.757 12.9359 12.0523C13.2313 12.3477 13.5875 12.4953 14.0047 12.4953C14.4219 12.4953 14.7758 12.3477 15.0664 12.0523C15.3617 11.757 15.5094 11.4078 15.5094 11.0047V6.50469C15.5094 6.09219 15.3594 5.73828 15.0594 5.44297C14.7641 5.14766 14.4125 5 14.0047 5C13.5922 5 13.2383 5.14766 12.943 5.44297C12.6477 5.73828 12.5 6.09219 12.5 6.50469ZM24.4883 14H21.493V3.49531H24.4883V6.50469C24.6055 5.50156 24.9148 4.74922 25.4164 4.24766C25.918 3.74609 26.6117 3.49531 27.4977 3.49531H28.9883V6.50469H25.993C25.5805 6.50469 25.2266 6.65234 24.9313 6.94766C24.6359 7.23828 24.4883 7.5875 24.4883 7.99531V14ZM30.493 3.49531H33.4883V12.4953H34.993C35.4102 12.4953 35.7641 12.3477 36.0547 12.0523C36.35 11.757 36.4977 11.4078 36.4977 11.0047V3.49531H39.493V12.4953H40.9977C41.4055 12.4953 41.7547 12.3477 42.0453 12.0523C42.3406 11.757 42.4883 11.4078 42.4883 11.0047V3.49531H45.4977V8.87422C45.4977 10.2711 44.9938 11.4758 43.9859 12.4883C42.9828 13.4961 41.7781 14 40.3719 14H36.4977V13.5219C35.9211 13.8406 35.2109 14 34.3672 14H30.493V3.49531ZM54.4977 7.99531V6.50469C54.4977 6.09219 54.3477 5.73828 54.0477 5.44297C53.7523 5.14766 53.4008 5 52.993 5H51.4883C50.6023 5 50.1055 5.50156 49.9977 6.50469H48.493C48.7227 4.49844 49.7211 3.49531 51.4883 3.49531H54.4977C55.318 3.49531 56.0211 3.79297 56.607 4.38828C57.1977 4.97891 57.493 5.68438 57.493 6.50469V14H54.4977V12.4953C54.3805 13.4984 53.8789 14 52.993 14H51.4883C50.668 14 49.9625 13.707 49.3719 13.1211C48.7859 12.5305 48.493 11.825 48.493 11.0047V10.9906C48.493 10.1703 48.7883 9.46719 49.3789 8.88125C49.9695 8.29062 50.6727 7.99531 51.4883 7.99531H54.4977ZM54.4977 9.5H52.993C52.5805 9.5 52.2266 9.64766 51.9313 9.94297C51.6359 10.2336 51.4883 10.5828 51.4883 10.9906V11.0047C51.4883 11.4078 51.6336 11.757 51.9242 12.0523C52.2195 12.3477 52.5758 12.4953 52.993 12.4953C53.4102 12.4953 53.7641 12.3477 54.0547 12.0523C54.35 11.757 54.4977 11.4078 54.4977 11.0047V9.5ZM63.4766 14H60.4812V3.49531H63.4766V6.50469C63.5938 5.50156 63.9031 4.74922 64.4047 4.24766C64.9063 3.74609 65.6 3.49531 66.4859 3.49531H67.9766V6.50469H64.9813C64.5687 6.50469 64.2148 6.65234 63.9195 6.94766C63.6242 7.23828 63.4766 7.5875 63.4766 7.99531V14ZM78.4813 14H75.4859V12.4953C75.3688 13.4984 74.8672 14 73.9813 14H72.4766C71.6562 14 70.9508 13.707 70.3602 13.1211C69.7742 12.5305 69.4812 11.825 69.4812 11.0047V6.50469C69.4812 5.675 69.7766 4.96719 70.3672 4.38125C70.9578 3.79062 71.6609 3.49531 72.4766 3.49531H75.4859V0.5H78.4813V14ZM75.4859 5H73.9813C73.5687 5 73.2148 5.14766 72.9195 5.44297C72.6242 5.73828 72.4766 6.09219 72.4766 6.50469V11.0047C72.4766 11.4078 72.6219 11.757 72.9125 12.0523C73.2078 12.3477 73.5641 12.4953 73.9813 12.4953C74.3984 12.4953 74.7523 12.3477 75.043 12.0523C75.3383 11.757 75.4859 11.4078 75.4859 11.0047V5ZM9.50469 32.5H3.5V34.0047C3.5 34.4078 3.64531 34.757 3.93594 35.0523C4.23125 35.3477 4.5875 35.4953 5.00469 35.4953H6.50938C7.50313 35.4953 8 34.9984 8 34.0047H9.50469C9.27031 36.0016 8.27188 37 6.50938 37H3.5C2.67969 37 1.97422 36.707 1.38359 36.1211C0.797656 35.5305 0.504687 34.825 0.504687 34.0047V29.5047C0.504687 28.675 0.8 27.9672 1.39062 27.3812C1.98125 26.7906 2.68438 26.4953 3.5 26.4953H6.50938C7.32969 26.4953 8.03281 26.793 8.61875 27.3883C9.20938 27.9789 9.50469 28.6844 9.50469 29.5047V32.5ZM3.5 30.9953H6.50938V29.5047C6.50938 29.0922 6.35938 28.7383 6.05938 28.443C5.76406 28.1477 5.4125 28 5.00469 28C4.59219 28 4.23828 28.1477 3.94297 28.443C3.64766 28.7383 3.5 29.0922 3.5 29.5047V30.9953ZM12.493 37V23.5H15.4883V37H12.493ZM27.5047 32.5H21.5V34.0047C21.5 34.4078 21.6453 34.757 21.9359 35.0523C22.2313 35.3477 22.5875 35.4953 23.0047 35.4953H24.5094C25.5031 35.4953 26 34.9984 26 34.0047H27.5047C27.2703 36.0016 26.2719 37 24.5094 37H21.5C20.6797 37 19.9742 36.707 19.3836 36.1211C18.7977 35.5305 18.5047 34.825 18.5047 34.0047V29.5047C18.5047 28.675 18.8 27.9672 19.3906 27.3812C19.9813 26.7906 20.6844 26.4953 21.5 26.4953H24.5094C25.3297 26.4953 26.0328 26.793 26.6188 27.3883C27.2094 27.9789 27.5047 28.6844 27.5047 29.5047V32.5ZM21.5 30.9953H24.5094V29.5047C24.5094 29.0922 24.3594 28.7383 24.0594 28.443C23.7641 28.1477 23.4125 28 23.0047 28C22.5922 28 22.2383 28.1477 21.943 28.443C21.6477 28.7383 21.5 29.0922 21.5 29.5047V30.9953ZM37.9883 29.5047H36.4977C36.3805 28.5016 35.8789 28 34.993 28C34.5805 28 34.2266 28.1477 33.9313 28.443C33.6359 28.7383 33.4883 29.0922 33.4883 29.5047V34.0047C33.4883 34.4078 33.6336 34.757 33.9242 35.0523C34.2195 35.3477 34.5758 35.4953 34.993 35.4953C35.8789 35.4953 36.3805 34.9984 36.4977 34.0047H37.9883C37.8664 36.0016 36.868 37 34.993 37H33.4883C32.668 37 31.9625 36.707 31.3719 36.1211C30.7859 35.5305 30.493 34.825 30.493 34.0047V29.5047C30.493 28.675 30.7883 27.9672 31.3789 27.3812C31.9695 26.7906 32.6727 26.4953 33.4883 26.4953H34.993C36.8773 26.4953 37.8758 27.4984 37.9883 29.5047ZM42.5094 23.5H45.5047V26.4953H47.0094V28H45.5047V34.0047C45.5047 34.4875 45.6641 34.8578 45.9828 35.1156C46.3016 35.3687 46.5969 35.4953 46.8688 35.4953H47.0094V37H45.5047C44.6797 37 43.9742 36.707 43.3883 36.1211C42.8023 35.5305 42.5094 34.825 42.5094 34.0047V28H41.0047V26.4953H42.5094V23.5ZM53 37H50.0047V26.4953H53V29.5047C53.1172 28.5016 53.4266 27.7492 53.9281 27.2477C54.4297 26.7461 55.1234 26.4953 56.0094 26.4953H57.5V29.5047H54.5047C54.0922 29.5047 53.7383 29.6523 53.443 29.9477C53.1477 30.2383 53 30.5875 53 30.9953V37ZM62 26.4953H65.0094C65.8297 26.4953 66.5328 26.793 67.1188 27.3883C67.7094 27.9789 68.0047 28.6844 68.0047 29.5047V34.0047C68.0047 34.8156 67.7094 35.5187 67.1188 36.1141C66.5328 36.7047 65.8297 37 65.0094 37H62C61.1797 37 60.4742 36.707 59.8836 36.1211C59.2977 35.5305 59.0047 34.825 59.0047 34.0047V29.5047C59.0047 28.675 59.3 27.9672 59.8906 27.3812C60.4813 26.7906 61.1844 26.4953 62 26.4953ZM62 29.5047V34.0047C62 34.4078 62.1453 34.757 62.4359 35.0523C62.7313 35.3477 63.0875 35.4953 63.5047 35.4953C63.9219 35.4953 64.2758 35.3477 64.5664 35.0523C64.8617 34.757 65.0094 34.4078 65.0094 34.0047V29.5047C65.0094 29.0922 64.8594 28.7383 64.5594 28.443C64.2641 28.1477 63.9125 28 63.5047 28C63.0922 28 62.7383 28.1477 62.443 28.443C62.1477 28.7383 62 29.0922 62 29.5047ZM70.993 37V26.4953H73.9883V28C74.0492 27.4937 74.2039 27.1164 74.4523 26.868C74.7055 26.6195 75.0523 26.4953 75.493 26.4953H76.9977C77.818 26.4953 78.5211 26.793 79.107 27.3883C79.6977 27.9789 79.993 28.6844 79.993 29.5047V37H76.9977V29.5047C76.9977 29.0922 76.8477 28.7383 76.5477 28.443C76.2523 28.1477 75.9008 28 75.493 28C75.0805 28 74.7266 28.1477 74.4313 28.443C74.1359 28.7383 73.9883 29.0922 73.9883 29.5047V37H70.993ZM82.9812 25.0047V23.5H85.9766V25.0047H82.9812ZM82.9812 37V26.4953H85.9766V37H82.9812ZM96.4883 29.5047H94.9977C94.8805 28.5016 94.3789 28 93.493 28C93.0805 28 92.7266 28.1477 92.4313 28.443C92.1359 28.7383 91.9883 29.0922 91.9883 29.5047V34.0047C91.9883 34.4078 92.1336 34.757 92.4242 35.0523C92.7195 35.3477 93.0758 35.4953 93.493 35.4953C94.3789 35.4953 94.8805 34.9984 94.9977 34.0047H96.4883C96.3664 36.0016 95.368 37 93.493 37H91.9883C91.168 37 90.4625 36.707 89.8719 36.1211C89.2859 35.5305 88.993 34.825 88.993 34.0047V29.5047C88.993 28.675 89.2883 27.9672 89.8789 27.3812C90.4695 26.7906 91.1727 26.4953 91.9883 26.4953H93.493C95.3773 26.4953 96.3758 27.4984 96.4883 29.5047Z" fill="url(#paint0_linear)"/>
<defs>
<linearGradient id="paint0_linear" x1="6.52913" y1="7.4" x2="78.6072" y2="25.8478" gradientUnits="userSpaceOnUse">
<stop stop-color="#69D1D1"/>
<stop offset="1" stop-color="#3EA8A7"/>
</linearGradient>
</defs>
</svg>

<svg width="97" height="37" fill="none" xmlns="http://www.w3.org/2000/svg"><path d="M2.01 14V5H.504V3.495h1.504v-.133c0-.783.282-1.456.844-2.018C3.416.78 4.088.5 4.871.5H8v1.505H6.369c-.375 0-.696.136-.964.408-.267.267-.4.583-.4.949v.133h1.504V5H5.005v9H2.009zM12.5 3.495h3.01c.82 0 1.523.298 2.109.893.59.59.886 1.296.886 2.117v4.5c0 .81-.296 1.514-.886 2.11-.586.59-1.29.885-2.11.885H12.5c-.82 0-1.526-.293-2.116-.879a2.9 2.9 0 0 1-.88-2.116v-4.5c0-.83.296-1.538.887-2.124.59-.59 1.293-.886 2.109-.886zm0 3.01v4.5c0 .403.145.752.436 1.047.295.296.652.443 1.069.443.417 0 .77-.147 1.061-.443.296-.295.443-.644.443-1.047v-4.5c0-.413-.15-.767-.45-1.062A1.44 1.44 0 0 0 14.005 5c-.413 0-.767.148-1.062.443a1.45 1.45 0 0 0-.443 1.062zM24.488 14h-2.995V3.495h2.995v3.01c.117-1.003.427-1.756.928-2.257.502-.502 1.196-.753 2.082-.753h1.49v3.01h-2.995c-.412 0-.766.147-1.062.443-.295.29-.443.64-.443 1.047V14zm6.005-10.505h2.995v9h1.505c.417 0 .771-.147 1.062-.443.295-.295.443-.644.443-1.047v-7.51h2.995v9h1.505c.408 0 .757-.147 1.047-.443.296-.295.443-.644.443-1.047v-7.51h3.01v5.38c0 1.396-.504 2.6-1.512 3.613C42.983 13.496 41.778 14 40.372 14h-3.874v-.478c-.577.319-1.287.478-2.13.478h-3.875V3.495zm24.005 4.5v-1.49c0-.413-.15-.767-.45-1.062A1.44 1.44 0 0 0 52.993 5h-1.505c-.886 0-1.383.502-1.49 1.505h-1.505c.23-2.007 1.228-3.01 2.995-3.01h3.01c.82 0 1.523.298 2.109.893.59.59.886 1.296.886 2.117V14h-2.995v-1.505C54.38 13.498 53.878 14 52.993 14h-1.505c-.82 0-1.526-.293-2.116-.879a2.9 2.9 0 0 1-.879-2.116v-.014c0-.82.295-1.524.886-2.11.59-.59 1.294-.886 2.11-.886h3.009zm0 1.505h-1.505a1.45 1.45 0 0 0-1.062.443c-.295.29-.443.64-.443 1.048v.014c0 .403.146.752.436 1.047.295.296.652.443 1.069.443.417 0 .771-.147 1.062-.443.295-.295.443-.644.443-1.047V9.5zm8.979 4.5H60.48V3.495h2.996v3.01c.117-1.003.426-1.756.928-2.257.501-.502 1.195-.753 2.08-.753h1.492v3.01H64.98c-.412 0-.766.147-1.061.443-.296.29-.443.64-.443 1.047V14zm15.004 0h-2.995v-1.505C75.369 13.498 74.867 14 73.98 14h-1.504c-.82 0-1.526-.293-2.117-.879a2.898 2.898 0 0 1-.879-2.116v-4.5c0-.83.296-1.538.886-2.124.59-.59 1.294-.886 2.11-.886h3.009V.5h2.995V14zm-2.995-9H73.98c-.412 0-.766.148-1.061.443-.296.295-.443.65-.443 1.062v4.5c0 .403.145.752.435 1.047.296.296.652.443 1.07.443.416 0 .77-.147 1.061-.443.295-.295.443-.644.443-1.047V5zM9.505 32.5H3.5v1.505c0 .403.145.752.436 1.047.295.296.652.443 1.069.443h1.504c.994 0 1.491-.497 1.491-1.49h1.505C9.27 36.002 8.272 37 6.509 37H3.5c-.82 0-1.526-.293-2.116-.879a2.9 2.9 0 0 1-.88-2.116v-4.5c0-.83.296-1.538.887-2.124.59-.59 1.293-.886 2.109-.886h3.01c.82 0 1.523.298 2.109.893.59.59.886 1.296.886 2.117V32.5zM3.5 30.995h3.01v-1.49c0-.413-.15-.767-.45-1.062A1.44 1.44 0 0 0 5.004 28c-.413 0-.767.148-1.062.443a1.45 1.45 0 0 0-.443 1.062v1.49zM12.493 37V23.5h2.995V37h-2.995zm15.012-4.5H21.5v1.505c0 .403.145.752.436 1.047.295.296.651.443 1.069.443h1.504c.994 0 1.491-.497 1.491-1.49h1.505C27.27 36.002 26.272 37 24.509 37H21.5c-.82 0-1.526-.293-2.116-.879-.586-.59-.88-1.296-.88-2.116v-4.5c0-.83.296-1.538.887-2.124.59-.59 1.293-.886 2.109-.886h3.01c.82 0 1.523.298 2.109.893.59.59.886 1.296.886 2.117V32.5zM21.5 30.995h3.01v-1.49c0-.413-.15-.767-.45-1.062A1.44 1.44 0 0 0 23.004 28c-.413 0-.767.148-1.062.443a1.45 1.45 0 0 0-.443 1.062v1.49zm16.488-1.49h-1.49C36.38 28.502 35.878 28 34.993 28a1.45 1.45 0 0 0-1.062.443 1.45 1.45 0 0 0-.443 1.062v4.5c0 .403.146.752.436 1.047.295.296.652.443 1.069.443.886 0 1.387-.497 1.505-1.49h1.49C37.866 36.002 36.868 37 34.993 37h-1.505c-.82 0-1.526-.293-2.116-.879a2.9 2.9 0 0 1-.879-2.116v-4.5c0-.83.295-1.538.886-2.124.59-.59 1.294-.886 2.11-.886h1.504c1.884 0 2.883 1.003 2.995 3.01zM42.51 23.5h2.996v2.995h1.504V28h-1.504v6.005c0 .482.16.853.478 1.11.319.254.614.38.886.38h.14V37h-1.504c-.825 0-1.53-.293-2.117-.879a2.9 2.9 0 0 1-.879-2.116V28h-1.504v-1.505h1.504V23.5zM53 37h-2.995V26.495H53v3.01c.117-1.003.427-1.756.928-2.257.502-.502 1.195-.753 2.081-.753H57.5v3.01h-2.995c-.413 0-.767.147-1.062.443-.295.29-.443.64-.443 1.047V37zm9-10.505h3.01c.82 0 1.523.298 2.109.893.59.59.886 1.296.886 2.117v4.5c0 .81-.296 1.514-.886 2.11-.586.59-1.29.885-2.11.885H62c-.82 0-1.526-.293-2.116-.879-.586-.59-.88-1.296-.88-2.116v-4.5c0-.83.296-1.538.887-2.124.59-.59 1.293-.886 2.109-.886zm0 3.01v4.5c0 .403.145.752.436 1.047.295.296.651.443 1.069.443.417 0 .77-.147 1.061-.443.296-.295.443-.644.443-1.047v-4.5c0-.413-.15-.767-.45-1.062A1.44 1.44 0 0 0 63.505 28c-.413 0-.767.148-1.062.443A1.45 1.45 0 0 0 62 29.505zM70.993 37V26.495h2.995V28c.061-.506.216-.884.464-1.132.254-.248.6-.373 1.041-.373h1.505c.82 0 1.523.298 2.109.893.59.59.886 1.296.886 2.117V37h-2.995v-7.495c0-.413-.15-.767-.45-1.062A1.44 1.44 0 0 0 75.493 28c-.412 0-.766.148-1.062.443a1.45 1.45 0 0 0-.443 1.062V37h-2.995zm11.988-11.995V23.5h2.996v1.505H82.98zm0 11.995V26.495h2.996V37H82.98zm13.507-7.495h-1.49C94.88 28.502 94.378 28 93.493 28c-.412 0-.766.148-1.062.443a1.45 1.45 0 0 0-.443 1.062v4.5c0 .403.146.752.436 1.047.295.296.652.443 1.069.443.886 0 1.388-.497 1.505-1.49h1.49C96.366 36.002 95.368 37 93.493 37h-1.505c-.82 0-1.525-.293-2.116-.879a2.9 2.9 0 0 1-.879-2.116v-4.5c0-.83.295-1.538.886-2.124.59-.59 1.294-.886 2.11-.886h1.504c1.884 0 2.883 1.003 2.995 3.01z" fill="url(#paint0_linear)"/><defs><linearGradient id="paint0_linear" x1="6.529" y1="7.4" x2="78.607" y2="25.848" gradientUnits="userSpaceOnUse"><stop stop-color="#69D1D1"/><stop offset="1" stop-color="#3EA8A7"/></linearGradient></defs></svg>
